X:1
T:Though your strangemess - Campian
T:#
%%score [ 1 2 3 ]
L:1/8
Q:1/4=108
M:2/2
K:Bb
V:1 treble nm="Soprano" snm="S"
V:2 treble nm="Alto" snm="A"
V:3 bass nm="Bass" snm="B"
V:1
"^Though your strangeness frets my heart" G2 B2 A2 ^F2 | G2 G2 ^F2 =E2 | D2 G2 A2 A2 | %3
w: ~~~Though your strange- ness|frets my heart, Yet|may not I com-|
w: ~Your wish'd sight if|I de- sire, Sus-|pi- cions you pre-|
w: ~When an- o- ther|holds your hand, You|swear I hold your|
w: ~Would my ri- val|then I were, Some|else your se- cret|
"^Thomas Campian\n(1575-1619)" G8 |[M:2/2] G2 B2 A2 ^F2 | G2 G2 ^F2 =E2 | D2 G2 A2 A2 | G8 | %8
w: plain:|You per- suade me|'tis but art That|se- cret love must|feign.|
w: tend:|Cause- less you your-|self re- tire while|I in vain at-|tend.|
w: heart:|When my ri- vals|close do stand, And|I sit far a-|part|
w: friend:|So much less- er|should I fear, And|not so much at-|tend.|
[M:2/2] =E2 A2 F2 D2 | B2 G2 A3 c | B2 G2 B4 | A2 d2 c4 | B4 z2 A2 | B2 G4 G2 | ^F4 F2 d2 | %15
w: If an- o- ther|you af- fect, T'is|but a show|t'a- void sus-|pect. Is|this fair ex-|cus- ing? O|
w: This a lo- ver|whets you say, Still|made more ea-|ger by de-|lay. Is|this fair ex-|cus- ing? O|
w: I am near- er|yet than they, Hid|in your bo-|som, as you|say. Is|this fair ex-|cus- ing? O|
w: They en- joy you|ev- 'ry one Yet|I must seem|your friend a-|lone. Is|this fair ex-|cus- ing? O|
 B2 d4 cB | A4 !fermata!G4 |] %17
w: no, all is a-|bus- ing.|
w: no, all is a-|bus- ing.|
w: no, all is a-|bus- ing.|
w: no, all is a-|bus- ing.|
V:2
 B,2 G,2 ^F,2 A,2 | G,2 B,2 A,2 C2 | ^F,2 G,2 G,2 F,2 | G,8 |[M:2/2] B,2 G,2 ^F,2 A,2 | %5
w: ~~~Though your strange- ness|frets my heart, Yet|may not I com-|plain:|You per- suade me|
w: ~Your wish'd sight if|I de- sire, Sus-|pi- cions you pre-|tend:|Cause- less you your-|
w: ~When an- o- ther|holds your hand, You|swear I hold your|heart:|When my ri- vals|
w: ~Would my ri- val|then I were, Some|else your se- cret|friend:|So much less- er|
 G,2 B,2 A,2 C2 | ^F,2 G,2 G,2 F,2 | G,8 |[M:2/2] G,2 C2 A,F, F2- | F2 =E2 F4- | F2 D2 B,3 A, | %11
w: 'tis but art That|se- cret love must|feign.|If an- o- ther you|* af- fect,|* T'is but a|
w: self re- tire while|I in vain at-|tend.|This a lo- ver whets|* you say,|* Still made more|
w: close do stand, And|I sit far a-|part.|I am near- er yet|* then they|* Hid in your|
w: should I fear, And|not so much at-|tend.|They en- joy you ev\-|* 'ry one,|* Yet I must|
 G,2 F,2 B,2 A,2 | B,4 z2 ^F,2 | G,4 B,2 C2 | A,4 A,2 ^F,2 | (G,A,) (B,C) (DG,) (G2- | %16
w: show t'a- void sus-|pect. Is|this fair ex-|cus- ing? O|no, * all * is * a\-|
w: ea- ger by de-|lay. Is|this fair ex-|cus- ing? O|no, * all * is * a\-|
w: bo- som, as you|say. Is|this fair ex-|cus- ing? O|no, * all * is * a\-|
w: seem your friend a-|lone. Is|this fair ex-|cus- ing? O|no, * all * is * a\-|
 G^F/=E/) !courtesy!^F2 !fermata!G4 |] %17
w: * * * bus- ing.|
w: * * * bus- ing.|
w: * * * bus- ing.|
w: * * * bus- ing.|
V:3
 G,2 G,2 D,2 D,2 | G,,2 G,,2 D,2 A,,2 | B,,2 G,,2 D,2 D,2 | G,,8 |[M:2/2] G,2 G,2 D,2 D,2 | %5
w: ~~~Though your strange- ness|frets my heart, Yet|may not I com-|plain:|You per- suade me|
w: ~Your wish'd sight if|I de- sire, Sus-|pi- cions you pre-|tend:|Cause- less you your-|
w: ~When an- o- ther|holds your hand, You|swear I hold your|heart:|When my ri- vals|
w: ~Would my ri- val|then I were, Some|else your se- cret|friend:|So much less- er|
 G,,2 G,,2 D,2 A,,2 | B,,2 G,,2 D,2 D,2 | G,,8 |[M:2/2] C,2 A,,2 D,2 D,2 | G,,2 C,2 F,,3 F,, | %10
w: 'tis but art That|se- cret love must|feign.|If an- o- ther|you af- fect, T'is|
w: self re- tire while|I in vain at-|tend.|This a lo- ver|whets you say, Still|
w: close do stand, And|I sit far a-|part.|I am near- er|yet then they, Hid|
w: should I fear, And|not so much at-|tend.|They en- joy you|ev- 'ry one, Yet|
 G,,2 G,,2 G,4 | D,2 B,,2 F,4 | B,,4 z2 D,2 | G,2 (E,3 D,) C,2 | D,4 D,2 D,2 | G,,3 A,, B,,2 C,2 | %16
w: but a show|t'a- void sus-|pect. Is|this fair * ex-|cus- ing? O|no, all is a-|
w: made more ea-|ger by de-|lay. Is|this fair * ex-|cus- ing? O|no, all is a-|
w: in your bo-|som, as you|say. Is|this fair * ex-|cus- ing? O|no, all is a-|
w: I must seem|your friend a-|lone. Is|this fair * ex-|cus- ing? O|no, all is a-|
 D,4 !fermata!G,,4 |] %17
w: bus- ing.|
w: bus- ing.|
w: bus- ing.|
w: bus- ing.|

